!!!COM: Bach, Johann Sebastian
!!!OPR: Joh. Seb. Bachs vierstimmige Choralgesänge
!!!XEN: Four-part Chorales
!!!OTL: Chorale 175. Wenn mein Stündlein vorhanden ist
!!!SCT: BWV 428
!!!SCA: Thematisch-systematisches Verzeichnis der musikalischen Werke Johann Sebastian Bach: Bach-Werke-Verzeichnis (Schmieder)
!!!YOR: Bach Gesellschaft Edition xxxix
!!!ENC: Steven Rasmussen
!!!CDT: 1685/3//-1750/7/28/
!!!OCY: Deutschland
!!!YEC: Copyright (c) 1994, 2000 Center for Computer Assisted Research in the Humanities
!!!YEM: Rights to all derivative editions reserved
!!!YEN: United States of America
**kern	**silbe	**kern	**silbe	**kern	**kern	**silbe
*I"[BASSO]	*I"[BASSO]	*I"[TENORE]	*I"[TENORE]	*I"[ALTO]	*I"[SOPRANO]	*I"[SOPRANO]
*clefF4	*	*clefGv2	*	*clefG2	*clefG2	*
*k[f#]	*	*k[f#]	*	*k[f#]	*k[f#]	*
*G:	*	*G:	*	*G:	*G:	*
*M4/4	*	*M4/4	*	*M4/4	*M4/4	*
8GGL	.	8BL	.	4d	4g	Wenn
8AAJ	.	8AJ	.	.	.	.
=1	=1	=1	=1	=1	=1	=1
4BB	.	4G	.	4d	4d	mein
4BB-	.	4G	.	4c	4e	Stünd-
4AA	.	4A	.	4c	4f#	-lein
4GG	.	4B	.	4d	4g	vor-
=2	=2	=2	=2	=2	=2	=2
4FF#	.	4c	.	4d	4a	-han-
4GG	.	4B	.	4d	4b	-den
4C;	.	4c;	.	4e;	4g;	ist
4G	.	4B	.	4d	8bL	und
.	.	.	.	.	8ccJ	.
=3	=3	=3	=3	=3	=3	=3
8F#L	.	4A	.	8dL	4dd	ich
8EJ	.	.	.	8eJ	.	.
4D	.	4A	.	4f#	4dd	soll
4E	.	8GL	.	4g	8bL	fahr'n
.	.	8AJ	.	.	8ccJ	.
4BB	.	4B	.	4fn	4dd	mein'
=4	=4	=4	=4	=4	=4	=4
4C	.	4B	.	4e	2cc	Stra-
4D	.	4A	.	4f#	.	.
4GG;	.	4G;	.	4d;	4b;	-sse,
4G	.	4B	.	4d	4b	so
=5	=5	=5	=5	=5	=5	=5
4F#	.	4A	.	4.d	4cc	g'leit'
4G	.	4B	.	.	4b	du
.	.	.	.	8e	.	.
4D#	.	4B	.	4f#	4a	mich,
8EL	.	4B	.	8gL	8gL	Herr
8F#J	.	.	.	8f#J	8aJ	.
=6	=6	=6	=6	=6	=6	=6
8GL	.	4B	.	4e	4b	Je-
8AJ	.	.	.	.	.	.
4B	.	4B	.	4d#	8bL	-su
.	.	.	.	.	8aJ	.
4E;	.	4B;	.	4e;	4g;	Christ,
4E	.	4G	.	4e	8bL	mit
.	.	.	.	.	8ccJ	.
=7	=7	=7	=7	=7	=7	=7
4Fn	.	8AL	.	4d	4dd	Hülf'
.	.	8BJ	.	.	.	.
4F#	.	8cL	.	4a	4dd	mich
.	.	8dJ	.	.	.	.
4G	.	8dL	.	4g	4b	nicht
.	.	8eJ	.	.	.	.
4G#	.	4fn	.	4b	4dd	ver-
=8	=8	=8	=8	=8	=8	=8
4A	.	4e	.	4b	2cc	-las-
4D	.	4f#	.	4a	.	.
4G;	.	4d;	.	4g;	4b;	-se:
8GL	.	4d	.	4g	4b	mein'
8F#J	.	.	.	.	.	.
=9	=9	=9	=9	=9	=9	=9
4E	.	4c	.	4g	4cc	Seel'
4D	.	4d	.	4g	4b	an
4C	.	4d	.	8f#L	4a	mei-
.	.	.	.	8eJ	.	.
8BBL	.	8dL	.	4d	8gL	-nem
8AAJ	.	8cJ	.	.	8aJ	.
=10	=10	=10	=10	=10	=10	=10
8GGL	.	8BL	.	4d	4b	letz-
8AAJ	.	8AJ	.	.	.	.
4BB	.	4G	.	4d	4b	-ten
4C;	.	4c;	.	4e;	4g;	End'
4A	.	4c	.	8eL	4a	be-
.	.	.	.	8f#J	.	.
=11	=11	=11	=11	=11	=11	=11
8GL	.	4B	.	8f#L	4b	-fehl'
8F#J	.	.	.	16eL	.	.
.	.	.	.	16f#JJ	.	.
8EL	.	4B	.	8gL	4b	ich,
8DJ	.	.	.	8f#J	.	.
4C#	.	8BL	.	4e	4e	Herr,
.	.	8AJ	.	.	.	.
4D	.	8AL	.	8eL	4f#	in
.	.	16BL	.	8dJ	.	.
.	.	16cJJ	.	.	.	.
=12	=12	=12	=12	=12	=12	=12
4GG	.	8BL	.	4d	8gL	dei-
.	.	8AJ	.	.	8f#J	.
4AA	.	4G	.	8dL	4e	-ne
.	.	.	.	8c#J	.	.
4D;	.	4F#;	.	4A;	4d;	Händ',
8DL	.	8F#L	.	4d	4d	du
8CJ	.	8AJ	.	.	.	.
=13	=13	=13	=13	=13	=13	=13
8BBL	.	4B	.	4d	4g	wirst
8AAJ	.	.	.	.	.	.
8GGL	.	4A	.	4d	4a	sie
8FF#J	.	.	.	.	.	.
8EEL	wohl	4G	wohl	4g	4b	wohl
8DJ	.	.	.	.	.	.
8CL	be-	8eL	.	4g	8aL	be-
8BBJ	.	8dJ	.	.	8bJ	.
=14	=14	=14	=14	=14	=14	=14
8AAL	-wah-	8cL	.	8f#L	4cc	-wah-
8FF#	.	8dJ	.	[8aJ	.	.
8GG	.	4d	be-	8aL]	4b	.
8BBJ	.	.	.	[8gJ	.	.
8CL	.	4e	-wah-	4g]	2a	.
8AA	.	.	.	.	.	.
8D	.	8dL	.	4f#	.	.
8DDJ	.	8cJ	.	.	.	.
=15	=15	=15	=15	=15	=15	=15
2.GG;	-ren.	2.B;	-ren.	2.d;	2.g;	-ren.
==|!	==|!	==|!	==|!	==|!	==|!	==|!
*-	*-	*-	*-	*-	*-	*-
!!!RWG: Key is interpreted using the Humdrum key tool.
!!!URL-pdf: https://s9.imslp.org/files/imglnks/usimg/7/7a/IMSLP04155-Bach_-_BGA_253-438.pdf#page=96 	Bach-Gesellschaft Ausgabe, Band 39 (pp.175-276) Leipzig: Breitkopf und Härtel, 1892. Plate B.W. XXXIX.
!!!END: 1994/08/08
!!!EMD: Converted from MuseData to Humdrum Dec 19, 2000, by Andreas Kornstaedt using muse2kern.
!!!EED: Craig Stuart Sapp
!!!EEV: 2024/03/31
!!!filter-keyboard: extract -i kern | satb2gs
!!!title: @{OTL} (@{SCT})
